icons/circle/48/klickety.svg

<svg xmlns="http://www.w3.org/2000/svg" viewBox="0 0 48 48">
 <defs>
  <linearGradient id="linearGradient3764" x1="1" x2="47" gradientUnits="userSpaceOnUse" gradientTransform="matrix(0,-1,1,0,-1.5e-6,47.999998)">
   <stop style="stop-color:#545454;stop-opacity:1"/>
   <stop offset="1" style="stop-color:#5e5e5e;stop-opacity:1"/>
  </linearGradient>
 </defs>
 <g>
  <path d="m 36.31 5 c 5.859 4.062 9.688 10.831 9.688 18.5 c 0 12.426 -10.07 22.5 -22.5 22.5 c -7.669 0 -14.438 -3.828 -18.5 -9.688 c 1.037 1.822 2.306 3.499 3.781 4.969 c 4.085 3.712 9.514 5.969 15.469 5.969 c 12.703 0 23 -10.298 23 -23 c 0 -5.954 -2.256 -11.384 -5.969 -15.469 c -1.469 -1.475 -3.147 -2.744 -4.969 -3.781 z m 4.969 3.781 c 3.854 4.113 6.219 9.637 6.219 15.719 c 0 12.703 -10.297 23 -23 23 c -6.081 0 -11.606 -2.364 -15.719 -6.219 c 4.16 4.144 9.883 6.719 16.219 6.719 c 12.703 0 23 -10.298 23 -23 c 0 -6.335 -2.575 -12.06 -6.719 -16.219 z" style="opacity:0.05"/>
  <path d="m 41.28 8.781 c 3.712 4.085 5.969 9.514 5.969 15.469 c 0 12.703 -10.297 23 -23 23 c -5.954 0 -11.384 -2.256 -15.469 -5.969 c 4.113 3.854 9.637 6.219 15.719 6.219 c 12.703 0 23 -10.298 23 -23 c 0 -6.081 -2.364 -11.606 -6.219 -15.719 z" style="opacity:0.1"/>
  <path d="m 31.25 2.375 c 8.615 3.154 14.75 11.417 14.75 21.13 c 0 12.426 -10.07 22.5 -22.5 22.5 c -9.708 0 -17.971 -6.135 -21.12 -14.75 a 23 23 0 0 0 44.875 -7 a 23 23 0 0 0 -16 -21.875 z" style="opacity:0.2"/>
 </g>
 <g>
  <path d="m 24 1 c 12.703 0 23 10.297 23 23 c 0 12.703 -10.297 23 -23 23 -12.703 0 -23 -10.297 -23 -23 0 -12.703 10.297 -23 23 -23 z" style="fill:url(#linearGradient3764);fill-opacity:1"/>
 </g>
 <g>
  <path d="m 40.03 7.531 c 3.712 4.084 5.969 9.514 5.969 15.469 0 12.703 -10.297 23 -23 23 c -5.954 0 -11.384 -2.256 -15.469 -5.969 4.178 4.291 10.01 6.969 16.469 6.969 c 12.703 0 23 -10.298 23 -23 0 -6.462 -2.677 -12.291 -6.969 -16.469 z" style="opacity:0.1"/>
 </g>
 <g transform="translate(0.005,0)">
  <g>
   <g transform="translate(1,1)">
    <g style="opacity:0.1">
     <!-- color: #eeeeee -->
     <g>
      <path d="m 13.1,12 7.797,0 c 0.609,0 1.102,0.559 1.102,1.246 l 0,7.512 C 21.999,21.446 21.507,22 20.897,22 L 13.1,22 c -0.605,0 -1.105,-0.555 -1.105,-1.242 l 0,-7.512 C 11.995,12.558 12.491,12 13.1,12 m 0,0" style="fill:#000;fill-opacity:1;stroke:none;fill-rule:nonzero"/>
      <path d="m 27.1,12 7.797,0 c 0.609,0 1.102,0.559 1.102,1.246 l 0,7.512 C 35.999,21.446 35.507,22 34.897,22 L 27.1,22 c -0.605,0 -1.105,-0.555 -1.105,-1.242 l 0,-7.512 C 25.995,12.558 26.491,12 27.1,12 m 0,0" style="fill:#000;fill-opacity:1;stroke:none;fill-rule:nonzero"/>
      <path d="m 13.1,26 7.797,0 c 0.609,0 1.102,0.559 1.102,1.246 l 0,7.512 C 21.999,35.442 21.507,36 20.897,36 L 13.1,36 c -0.605,0 -1.105,-0.559 -1.105,-1.242 l 0,-7.512 C 11.995,26.558 12.491,26 13.1,26 m 0,0" style="fill:#000;fill-opacity:1;stroke:none;fill-rule:nonzero"/>
      <path d="m 27.1,26 7.797,0 c 0.609,0 1.102,0.559 1.102,1.246 l 0,7.512 C 35.999,35.442 35.507,36 34.897,36 L 27.1,36 c -0.605,0 -1.105,-0.559 -1.105,-1.242 l 0,-7.512 C 25.995,26.558 26.491,26 27.1,26 m 0,0" style="fill:#000;fill-opacity:1;stroke:none;fill-rule:nonzero"/>
     </g>
    </g>
   </g>
  </g>
 </g>
 <g transform="translate(0.005,0)">
  <g>
   <!-- color: #eeeeee -->
   <g>
    <path d="m 13.1,12 7.797,0 c 0.609,0 1.102,0.559 1.102,1.246 l 0,7.512 C 21.999,21.446 21.507,22 20.897,22 L 13.1,22 c -0.605,0 -1.105,-0.555 -1.105,-1.242 l 0,-7.512 C 11.995,12.558 12.491,12 13.1,12 m 0,0" style="fill:#e67c58;fill-opacity:1;stroke:none;fill-rule:nonzero"/>
    <path d="m 27.1,12 7.797,0 c 0.609,0 1.102,0.559 1.102,1.246 l 0,7.512 C 35.999,21.446 35.507,22 34.897,22 L 27.1,22 c -0.605,0 -1.105,-0.555 -1.105,-1.242 l 0,-7.512 C 25.995,12.558 26.491,12 27.1,12 m 0,0" style="fill:#77aded;fill-opacity:1;stroke:none;fill-rule:nonzero"/>
    <path d="m 13.1,26 7.797,0 c 0.609,0 1.102,0.559 1.102,1.246 l 0,7.512 C 21.999,35.442 21.507,36 20.897,36 L 13.1,36 c -0.605,0 -1.105,-0.559 -1.105,-1.242 l 0,-7.512 C 11.995,26.558 12.491,26 13.1,26 m 0,0" style="fill:#ee9c44;fill-opacity:1;stroke:none;fill-rule:nonzero"/>
    <path d="m 27.1,26 7.797,0 c 0.609,0 1.102,0.559 1.102,1.246 l 0,7.512 C 35.999,35.442 35.507,36 34.897,36 L 27.1,36 c -0.605,0 -1.105,-0.559 -1.105,-1.242 l 0,-7.512 C 25.995,26.558 26.491,26 27.1,26 m 0,0" style="fill:#a1eb35;fill-opacity:1;stroke:none;fill-rule:nonzero"/>
   </g>
  </g>
 </g>
</svg>

<svg xmlns="http://www.w3.org/2000/svg" viewBox="0 0 48 48">
  <defs>
    <linearGradient id="a" x1="1" x2="47" gradientUnits="userSpaceOnUse" gradientTransform="rotate(-90 24 24)">
      <stop stop-color="#545454"/>
      <stop offset="1" stop-color="#5e5e5e"/>
    </linearGradient>
  </defs>
  <path d="M36.31 5c5.859 4.062 9.688 10.831 9.688 18.5 0 12.426-10.07 22.5-22.5 22.5-7.669 0-14.438-3.828-18.5-9.688a23.24 23.24 0 0 0 3.781 4.969 22.923 22.923 0 0 0 15.469 5.969c12.703 0 23-10.298 23-23a22.92 22.92 0 0 0-5.969-15.469A23.216 23.216 0 0 0 36.31 5zm4.969 3.781A22.911 22.911 0 0 1 47.498 24.5c0 12.703-10.297 23-23 23a22.909 22.909 0 0 1-15.719-6.219C12.939 45.425 18.662 48 24.998 48c12.703 0 23-10.298 23-23 0-6.335-2.575-12.06-6.719-16.219z" opacity=".05"/>
  <path d="M41.28 8.781a22.923 22.923 0 0 1 5.969 15.469c0 12.703-10.297 23-23 23A22.92 22.92 0 0 1 8.78 41.281 22.911 22.911 0 0 0 24.499 47.5c12.703 0 23-10.298 23-23A22.909 22.909 0 0 0 41.28 8.781z" opacity=".1"/>
  <path d="M31.25 2.375C39.865 5.529 46 13.792 46 23.505c0 12.426-10.07 22.5-22.5 22.5-9.708 0-17.971-6.135-21.12-14.75a23 23 0 0 0 44.875-7 23 23 0 0 0-16-21.875z" opacity=".2"/>
  <path d="M24 1c12.703 0 23 10.297 23 23S36.703 47 24 47 1 36.703 1 24 11.297 1 24 1z" fill="url(#a)"/>
  <path d="M40.03 7.531A22.922 22.922 0 0 1 45.999 23c0 12.703-10.297 23-23 23A22.92 22.92 0 0 1 7.53 40.031C11.708 44.322 17.54 47 23.999 47c12.703 0 23-10.298 23-23 0-6.462-2.677-12.291-6.969-16.469z" opacity=".1"/>
  <g>
    <g opacity=".1">
      <path d="M14.105 13h7.797c.609 0 1.102.559 1.102 1.246v7.512c0 .688-.492 1.242-1.102 1.242h-7.797C13.5 23 13 22.445 13 21.758v-7.512c0-.688.496-1.246 1.105-1.246m0 0M28.105 13h7.797c.609 0 1.102.559 1.102 1.246v7.512c0 .688-.492 1.242-1.102 1.242h-7.797C27.5 23 27 22.445 27 21.758v-7.512c0-.688.496-1.246 1.105-1.246m0 0M14.105 27h7.797c.609 0 1.102.559 1.102 1.246v7.512c0 .684-.492 1.242-1.102 1.242h-7.797C13.5 37 13 36.441 13 35.758v-7.512c0-.688.496-1.246 1.105-1.246m0 0M28.105 27h7.797c.609 0 1.102.559 1.102 1.246v7.512c0 .684-.492 1.242-1.102 1.242h-7.797C27.5 37 27 36.441 27 35.758v-7.512c0-.688.496-1.246 1.105-1.246m0 0"/>
    </g>
  </g>
  <g>
    <path d="M13.105 12h7.797c.609 0 1.102.559 1.102 1.246v7.512c0 .688-.492 1.242-1.102 1.242h-7.797C12.5 22 12 21.445 12 20.758v-7.512c0-.688.496-1.246 1.105-1.246m0 0" fill="#e67c58"/>
    <path d="M27.105 12h7.797c.609 0 1.102.559 1.102 1.246v7.512c0 .688-.492 1.242-1.102 1.242h-7.797C26.5 22 26 21.445 26 20.758v-7.512c0-.688.496-1.246 1.105-1.246m0 0" fill="#77aded"/>
    <path d="M13.105 26h7.797c.609 0 1.102.559 1.102 1.246v7.512c0 .684-.492 1.242-1.102 1.242h-7.797C12.5 36 12 35.441 12 34.758v-7.512c0-.688.496-1.246 1.105-1.246m0 0" fill="#ee9c44"/>
    <path d="M27.105 26h7.797c.609 0 1.102.559 1.102 1.246v7.512c0 .684-.492 1.242-1.102 1.242h-7.797C26.5 36 26 35.441 26 34.758v-7.512c0-.688.496-1.246 1.105-1.246m0 0" fill="#a1eb35"/>
  </g>
</svg>
